lib/svgs/unordered-list.svg

<?xml version="1.0" encoding="UTF-8"?>
<svg width="16px" height="16px" viewBox="0 0 16 16" version="1.1" xmlns="http://www.w3.org/2000/svg" xmlns:xlink="http://www.w3.org/1999/xlink">
    <!-- Generator: sketchtool 51.3 (57544) - http://www.bohemiancoding.com/sketch -->
    <title>editor/unordered-list</title>
    <desc>Created with sketchtool.</desc>
    <defs></defs>
    <g id="Icons" stroke="none" stroke-width="1" fill="none" fill-rule="evenodd">
        <g id="Web" transform="translate(-576.000000, -1423.000000)" fill="#000000">
            <g id="editor/unordered-list" transform="translate(576.000000, 1423.000000)">
                <path d="M2.83629273,14.0426996 C2.83629273,14.8262254 2.20167223,15.4608459 1.41814636,15.4608459 C0.634620498,15.4608459 0,14.8262254 0,14.0426996 C0,13.2591737 0.634620498,12.6245532 1.41814636,12.6245532 C2.20167223,12.6245532 2.83629273,13.2591737 2.83629273,14.0426996 M15.2615003,14.6344536 L5.60392354,14.6344536 C5.2127515,14.6344536 4.89485036,14.3427939 4.89485036,13.9839115 C4.89485036,13.6250291 5.2127515,13.3344536 5.60392354,13.3344536 L15.2615003,13.3344536 C15.6538541,13.3344536 15.9705735,13.6250291 15.9705735,13.9839115 C15.9705735,14.3427939 15.6538541,14.6344536 15.2615003,14.6344536 M2.86583744,8.12808381 C2.86583744,8.91160968 2.23121695,9.54623017 1.44769108,9.54623017 C0.664165214,9.54623017 0.0295447159,8.91160968 0.0295447159,8.12808381 C0.0295447159,7.34455794 0.664165214,6.70993744 1.44769108,6.70993744 C2.23121695,6.70993744 2.86583744,7.34455794 2.86583744,8.12808381 M15.2909268,8.71912876 L5.63335008,8.71912876 C5.24217804,8.71912876 4.92427689,8.4277121 4.92427689,8.06912878 C4.92427689,7.70946213 5.24217804,7.41912881 5.63335008,7.41912881 L15.2909268,7.41912881 C15.6832806,7.41912881 16,7.70946213 16,8.06912878 C16,8.4277121 15.6832806,8.71912876 15.2909268,8.71912876 M2.86583744,2.21819519 C2.86583744,3.00172106 2.23121695,3.63634156 1.44769108,3.63634156 C0.664165214,3.63634156 0.0295447159,3.00172106 0.0295447159,2.21819519 C0.0295447159,1.43466933 0.664165214,0.800048828 1.44769108,0.800048828 C2.23121695,0.800048828 2.86583744,1.43466933 2.86583744,2.21819519 M15.2909268,2.80912196 L5.63335008,2.80912196 C5.24217804,2.80912196 4.92427689,2.51770531 4.92427689,2.15912199 C4.92427689,1.79945533 5.24217804,1.50912201 5.63335008,1.50912201 L15.2909268,1.50912201 C15.6832806,1.50912201 16,1.79945533 16,2.15912199 C16,2.51770531 15.6832806,2.80912196 15.2909268,2.80912196" id="Shape"></path>
            </g>
        </g>
    </g>
</svg>

<svg xmlns="http://www.w3.org/2000/svg" viewBox="0 0 16 16">
    <path d="M2.836 14.043a1.418 1.418 0 1 1-2.835 0 1.418 1.418 0 0 1 2.835 0m12.426.591H5.604c-.391 0-.71-.291-.71-.65 0-.359.319-.65.71-.65h9.658c.392 0 .709.291.709.65 0 .359-.317.65-.71.65M2.867 8.128a1.418 1.418 0 1 1-2.836 0 1.418 1.418 0 0 1 2.836 0m12.425.591H5.633c-.39 0-.709-.291-.709-.65 0-.36.318-.65.71-.65h9.657c.392 0 .709.29.709.65 0 .359-.317.65-.71.65M2.867 2.22a1.418 1.418 0 1 1-2.836 0 1.418 1.418 0 0 1 2.836 0m12.425.59H5.633c-.39 0-.709-.291-.709-.65 0-.36.318-.65.71-.65h9.657c.392 0 .709.29.709.65 0 .359-.317.65-.71.65"/>
</svg>
